images/naos.svg

<svg height="250" viewBox="0 0 250 250" width="250" xmlns="http://www.w3.org/2000/svg" xmlns:xlink="http://www.w3.org/1999/xlink"><linearGradient id="a" gradientUnits="userSpaceOnUse" x1="38.63755538725" x2="215.41440863817" y1="211.36238008542" y2="34.58553036183"><stop offset="0" stop-color="#2c1f9b"/><stop offset="1" stop-color="#5844f1"/></linearGradient><path d="m250 125c0 69.035156-55.964844 125-125 125s-125-55.964844-125-125 55.964844-125 125-125 125 55.964844 125 125zm0 0" fill="url(#a)"/><g fill="#fff"><path d="m148.484375 97-83.265625-48.058594c-1.132812-.855468-2.511719-1.316406-3.929688-1.324218-.105468 0-.214843 0-.320312 0-1.925781.050781-3.734375.945312-4.945312 2.441406-1.210938 1.5-1.703126 3.453125-1.351563 5.347656v139.921875c.035156 2.386719 1.316406 4.589844 3.375 5.804687 2.058594 1.210938 4.601563 1.265626 6.710937.140626l42-24.25c3.167969-1.824219 4.253907-5.871094 2.425782-9.039063-1.824219-3.164063-5.871094-4.25-9.039063-2.425781l-32.242187 18.625v-118.429688l73.96875 42.710938c3.160156 1.828125 7.207031.742187 9.03125-2.417969.882812-1.523437 1.121094-3.328125.667968-5.027344-.457031-1.695312-1.566406-3.140625-3.085937-4.019531zm0 0"/><path d="m101.515625 152.769531 83.265625 48.058594c1.132812.855469 2.511719 1.320313 3.929688 1.324219h.320312c1.925781-.050782 3.730469-.941406 4.941406-2.4375 1.210938-1.5 1.707032-3.453125 1.355469-5.34375v-139.921875c-.035156-2.390625-1.316406-4.589844-3.375-5.804688-2.058594-1.214843-4.601563-1.269531-6.710937-.144531l-42 24.25c-3.167969 1.828125-4.253907 5.875-2.425782 9.039062 1.824219 3.167969 5.871094 4.253907 9.039063 2.425782l32.242187-18.628906v118.429687l-73.96875-42.707031c-3.164062-1.824219-7.207031-.738282-9.03125 2.425781-1.828125 3.164063-.742187 7.207031 2.417969 9.035156zm0 0"/></g></svg>

<svg xmlns="http://www.w3.org/2000/svg" xmlns:xlink="http://www.w3.org/1999/xlink" width="250px" height="250px" viewBox="0 0 250 250" version="1.1">
<defs>
<linearGradient id="linear0" gradientUnits="userSpaceOnUse" x1="87.629997" y1="479.369995" x2="488.559998" y2="78.440002" gradientTransform="matrix(0.440917,0,0,0.440917,0,0)">
<stop offset="0" style="stop-color:rgb(17.254902%,12.156863%,60.784316%);stop-opacity:1;"/>
<stop offset="1" style="stop-color:rgb(34.509805%,26.666668%,94.509804%);stop-opacity:1;"/>
</linearGradient>
</defs>
<g id="surface1">
<path style=" stroke:none;fill-rule:nonzero;fill:url(#linear0);" d="M 250 125 C 250 194.035156 194.035156 250 125 250 C 55.964844 250 0 194.035156 0 125 C 0 55.964844 55.964844 0 125 0 C 194.035156 0 250 55.964844 250 125 Z M 250 125 "/>
<path style=" stroke:none;fill-rule:nonzero;fill:rgb(100%,100%,100%);fill-opacity:1;" d="M 148.484375 97 L 65.21875 48.941406 C 64.085938 48.085938 62.707031 47.625 61.289062 47.617188 C 61.183594 47.617188 61.074219 47.617188 60.96875 47.617188 C 59.042969 47.667969 57.234375 48.5625 56.023438 50.058594 C 54.8125 51.558594 54.320312 53.511719 54.671875 55.40625 L 54.671875 195.328125 C 54.707031 197.714844 55.988281 199.917969 58.046875 201.132812 C 60.105469 202.34375 62.648438 202.398438 64.757812 201.273438 L 106.757812 177.023438 C 109.925781 175.199219 111.011719 171.152344 109.183594 167.984375 C 107.359375 164.820312 103.3125 163.734375 100.144531 165.558594 L 67.902344 184.183594 L 67.902344 65.753906 L 141.871094 108.464844 C 145.03125 110.292969 149.078125 109.207031 150.902344 106.046875 C 151.785156 104.523438 152.023438 102.71875 151.570312 101.019531 C 151.113281 99.324219 150.003906 97.878906 148.484375 97 Z M 148.484375 97 "/>
<path style=" stroke:none;fill-rule:nonzero;fill:rgb(100%,100%,100%);fill-opacity:1;" d="M 101.515625 152.769531 L 184.78125 200.828125 C 185.914062 201.683594 187.292969 202.148438 188.710938 202.152344 C 188.816406 202.152344 188.925781 202.152344 189.03125 202.152344 C 190.957031 202.101562 192.761719 201.210938 193.972656 199.714844 C 195.183594 198.214844 195.679688 196.261719 195.328125 194.371094 L 195.328125 54.449219 C 195.292969 52.058594 194.011719 49.859375 191.953125 48.644531 C 189.894531 47.429688 187.351562 47.375 185.242188 48.5 L 143.242188 72.75 C 140.074219 74.578125 138.988281 78.625 140.816406 81.789062 C 142.640625 84.957031 146.6875 86.042969 149.855469 84.214844 L 182.097656 65.585938 L 182.097656 184.015625 L 108.128906 141.308594 C 104.964844 139.484375 100.921875 140.570312 99.097656 143.734375 C 97.269531 146.898438 98.355469 150.941406 101.515625 152.769531 Z M 101.515625 152.769531 "/>
</g>
</svg>
